X: 7031
T: Children Of The Little Dancing Bush
R: reel
M: 4/4
K: Edorian
|:BEED EFGA|B2 eB dABd|efed BdAG|FDFA dAFd|
BEED EFGA|B2 eB dABd|efed BdAG|FdAF EFGA:|
|:Bee^d eBef|g3 a gfeg|fddc dAFA|
[1 dFAd fded|Bee^d eBef|g3 a gfeg|fddc dBAF|GEFD EFGA:|
[2 dFAd fagf|eB~B2 gfeg|fdaf gfed|eBBA BdAG|FdAF EFGA||

